!!!!SEGMENT: pl-wumfc--r245--001-002_paderewski-ignacy-jan--stara-suita-op-3-intermezzo.krn
!!!cenid: 18xx:3138
!!!COM: Paderewski, Ignacy Jan
!!!COM-rismid: pe30029943
!!!CDT: 1860/11/18-1941/06/29
!!!CNT: Polish
!!!OPR: Stara suita op. 3
!!!OTL: Intermezzo
!!!OMV: 002
!!!PDT:
!!!AGN:
!!!SMS-siglum: PL-Wumfc
!!!SMS-shelfmark: R245
!!!SMS-shelfwork: 001-002 M
!!!SMS-variant:
!!!SMS-altvar:
!!!NIFC-rismid: 1001155838
!!!URL-scan: http://repozytorium.nifc.pl/skany/pl-wumfc--r245
!!!ONB-nifc: UWAGA: części Suity: 1.Preludio, 2. Intermezzo, 3. Aria, 4. Fuga
!!!OMD: Allgro molto vivace
!!!key: B-
**kern	**kern	**dynam
*part1	*part1	*part1
*staff2	*staff1	*
*I"Fortepian	*I"Fortepian	*
*Ipiano	*Ipiano	*
*ICklav	*ICklav	*
*clefF4	*clefG2	*
*k[b-e-]	*k[b-e-]	*
*B-:	*B-:	*
*M2/4	*M2/4	*
*all\right	*allright	*
=1	=1	=1
*	*^	*
4B-\	4f/	4d\	.
4B-\	4g/	4d-X\	sf
=2	=2	=2	=2
4G\	8c/L	4d\	.
.	8d/J	.	.
4F\	4e-/	4A\	.
=3	=3	=3	=3
(8BB-\L	(8d/L	4B-\	.
8C\	8e-/	.	.
8D\	8f/	8ryy	.
8En\J	8g/J	8d-X\	.
=4	=4	=4	=4
8F\L	8a/L	4c\	.
8G\J	8b-/J	.	.
4A\)	4cc/)	4f\	.
=5	=5	=5	=5
*	*	*2\right	*
4B-\	(4dd/	2d\	<
4A\	4cc/)	.	[[
!!LO:LB:g=original
=6	=6	=6	=6
4G\	(8b-/L	4d\	.
.	8cc/J	.	.
4F\	4dd/)	4d\	.
=7	=7	=7	=7
4G\	(4b-/	2B-\	<
4F\	4a/	.	[[
=8	=8	=8	=8
4E-\	8g/L	4B-\	.
.	8a/J	.	.
4D\	4b-/)	4B-\	.
=9	=9	=9	=9
4G\	4e-/	2B-\	p
4A-X\	8f/L	.	.
.	8d/J	.	.
=10	=10	=10	=10
4G\	[2b-/	8B-\L	.
.	.	8e-\	.
4A-X\	.	8f\	.
.	.	8d\J	.
=11	=11	=11	=11
8G\	8b-/]	8e-\	.
8r	(>8d/L	8r	.
!	!	!	!LO:HP:t=cres.
4r	8e-/	4r	<
.	8f/J	.	.
!!LO:PB:g=original
=12	=12	=12	=12
2r	8b-/L	4r	.
.	8dd/	.	.
.	8ee-/	4r	.
.	8gg/J)	.	.
=13	=13	=13	=13
4G\	[2bb-/	4e-\	.
4A-X\	.	8f\L	.
.	.	[>8d\J	.
=14	=14	=14	=14
4G\	2bb-/]	8d\L]	.
.	.	8e-\	.
4A-X\	.	8f\	.
.	.	8d\J	.
=15	=15	=15	=15
4G\	[2bb-/	8e-\L	<
.	.	8d\	.
8G\L	.	8e-\	.
8B-\J	.	8g\J	.
=16	=16	=16	=16
4e-\	2bb-/]	8b-\L	.
.	.	8dd\	.
8g\L	.	8ee-\	.
8b-\J	.	8ff\J	[[
=17	=17	=17	=17
4e-\	[2bb-/	4gg\	.
4d\	.	4ff\	.
!!LO:LB:g=original
=18	=18	=18	=18
8c\L	8bb-/L]	8ee-\L	>
8d\J	8aa/J	8ff\J	.
4e-\	4gg/	4gg\	]
=19	=19	=19	=19
4d\	[2gg/	4ff\	<
4c\	.	4ee-\	[[
=20	=20	=20	=20
8Bn\L	2gg/]	8dd\L	>
8c\J	.	8ee-\J	.
4d\	.	4ff\	]
=21	=21	=21	=21
*^	*	*	*
!	!	!LO:TX:b:t=rit.	!	!
8ryy	4c\	(8gg/L	8ee-\	.
8c/L	.	8ee-/	8ryy	.
8d/	4A-X\	8dd/	4ryy	.
8e-/J	.	8cc/J	.	.
*	*	*v	*v	*
=22	=22	=22	=22
*	*2\right	*	*
(4f/	2G\	8bn/L	.
.	.	8cc/J)	.
4Bn/)	.	4dd/	.
=23	=23	=23	=23
!	!	!LO:TX:b:t=un poco	!
(4B-X/	2G-X\	(>8ee-/L	.
.	.	8dd/	.
8c/L	.	8cc/	.
8d/J)	.	8b-/J	.
!!LO:LB:g=original
=24	=24	=24	=24
*	*	*^	*
!	!	!LO:TX:b:t=ritard.	!	!
4.e-/	4.F\	8a/L	4.ryy	.
.	.	8g/	.	.
.	.	[>8f/	.	.
8ryy	8A\	8f/J])	8e-\	.
*v	*v	*	*	*
=25	=25	=25	=25
!	!LO:TX:a:t=à tempo	!	!
4B-\	4f/	4d\	.
4B-\	4g^/	4d-X\	.
=26	=26	=26	=26
4G\	8c/L	4B-\	.
.	8d/J	.	.
4F\	4e-/	4A\	.
=27	=27	=27	=27
8BB-\L	8d/L	4.B-\	<
8C\	8e-/	.	.
8D\	8f/	.	.
8En\J	8g/J	8d-X\	.
=28	=28	=28	=28
4F\	8a/L	4c\	[
.	8b-/J	.	.
4A\	4cc/	4f\	f
=29	=29	=29	=29
4B-\	(4dd/	4d\	<
4A\	4cc/	4d\	.
!!LO:LB:g=original
=30	=30	=30	=30
4G\	8b-/L	2d\	.
.	8cc/J	.	.
4F\	4dd/)	.	[
=31	=31	=31	=31
4G\	(4b-/	4B-\	<
4F\	4a/	4B-\	.
=32	=32	=32	=32
4E-\	8g/L	2B-\	.
.	8a/J	.	.
4D\	4b-/)	.	[[
=33	=33	=33	=33
!	!LO:TX:a:t=più lento	!	!
4C/	(8e-/L	4c\	<
.	8f/J	.	[
4GG\	4g^/)	4Bn\	>]
=34	=34	=34	=34
4FF\	(8c/L	4A-X\	<
.	8d/J)	.	[
4CC\	4e-^/	4G\	>]
*	*v	*v	*
=35	=35	=35
*^	*	*
!	!	!LO:TX:a:t=a tempo	!
2F/	8FF\L	8A/L	<
.	8GG\	8B-/	.
!	!	!LO:TX:b:t=molto cres.	!
.	8AA\	8c/	.
.	8BB-\J	8d/J	.
!!LO:LB:g=original
=36	=36	=36	=36
4.F/	8C\L	8e-/L	.
.	8D\	8f/	.
.	8E-\J	8g/J	[
8r;	8ryy	8r;	.
*v	*v	*	*
=37	=37	=37
*	*^	*
4r	4r	4ryy	.
!	!	!	!LO:DY:rj
(4FF\	(4e-/	(4A\	p
=38	=38	=38	=38
4BBB-\)	4d/)	4B-\)	.
4r	4r	4ryy	.
!!LO:PB:g=original
=39||	=39||	=39||	=39||
!	!	!	!LO:HP:b=2
2r	8ddd^>/L	2r	mf <
.	8ccc#X/	.	.
.	8ddd/	.	.
.	8cccn/J	.	.
=40	=40	=40	=40
!	!LO:TX:b:t=marcato	!	!
2r	4.bb-/	8dd^<\L	.
.	.	8cc#X\	.
.	.	8dd\	.
.	8aa/	8ccn\J	[[
=41	=41	=41	=41
8d^\L	4gg/	4.b-\	.
8c#X\	.	.	.
8d\	4dd/	.	.
8cn\J	.	8a\	.
=42	=42	=42	=42
8B-\L	(4dd/	(4g\	.
8D\	.	.	.
!	!	!	!LO:HP:t=cres
8En\	4cc/)	4d\)	<
8F#X\J	.	.	.
=43	=43	=43	=43
4G\	(8b-/L	4d\	<
.	8cc/	.	.
8F\L	8dd/	8a\L	.
8E-\J	8een/J)	8cc#X\J	[[
!!LO:LB:g=original
=44	=44	=44	=44
!	!	!	!LO:HP:b=2
8D\L	4ff/	4dd\	<
8En\	.	.	.
8F\	4ryy	4ryy	.
8A\J	.	.	[[
=45	=45	=45	=45
4d\	(8dd/L	8f\L	<
.	8een/	8cc#X\	.
8c\L	8ff/	8dd\	.
8B-\J	8gg/J)	8ee-X\J	[[
=46	=46	=46	=46
!	!	!	!LO:HP:b=2
8A\L	4aa/	4cc#X\	sf <
8Bn\	.	.	.
8c#X\	4ryy	4ryy	.
8en\J	.	.	[[
=47	=47	=47	=47
8a^\L	2rdd	4r	.
8g#X\	.	.	f
8a\	.	4r	.
8gn\J	.	.	.
=48	=48	=48	=48
4.f\	2rff	8a\L	<
.	.	8g#X\	.
.	.	8a\	.
8en\	.	8gn\J	.
!!LO:LB:g=original
=49	=49	=49	=49
4d\	8aa/L	4.f\	.
.	8gg#X/	.	.
4c#X\	8aa/	.	[
.	8ggn/J	8en\	.
=50	=50	=50	=50
4d\	4.ff/	8f\L	.
.	.	8en\	.
4A\	.	8f\	.
.	8een/	8g\J	.
=51	=51	=51	=51
2B-\	(4dd/	8f\L	<
.	.	8g\	.
.	4ff/	8a-X\	.
.	.	8b-\J	[[
=52	=52	=52	=52
8e-\L	8ee-X/L	2g\	>
8c-X\	8ff/J	.	.
8B-\	4gg/)	.	.
8E-\J	.	.	]]
=53	=53	=53	=53
2A\	(4cc#X/	8en\L	<
.	.	8f\	.
.	4een/)	8g\	.
.	.	8a\J	[[
!!LO:LB:g=original
=54	=54	=54	=54
8d\L	8dd/L	2f\	>
8B-\	8een/J	.	.
8A\	4ff/	.	.
8D\J	.	.	]]
=55	=55	=55	=55
8f^\L	2rdd	4r	.
8en\	.	.	.
8f\	.	4r	.
8e-X\J	.	.	.
=56	=56	=56	=56
!	!	!	!LO:HP:t=poco cres
4.d\	8ff^/L	4r	<
.	8een/	.	.
.	8ff/	4r	.
8c\	8ee-X/J	.	.
=57	=57	=57	=57
[2G\	(4.dd/	8f\L	.
.	.	8en\	.
.	.	8f\	.
.	8cc/)	8e-X\J	.
=58	=58	=58	=58
8G\L]	(4bn/	8d\L	.
8F\	.	8a-X\	.
8E-\	8cc/L	8g\	.
8D\J	8dd/J	8f\J	.
!!LO:LB:g=original
=59	=59	=59	=59
!	!	!	!LO:DY:t=forte
2C/	8ee-/L	2e-\	f
.	8dd/	.	.
.	8cc/	.	.
.	8g/J)	.	.
=60	=60	=60	=60
(4F\	(>2a-X/	(8e-\L	.
.	.	8d\	.
4BB-/	.	8c\	.
.	.	8d\J	.
=61	=61	=61	=61
2E-\)	2g/)	8e-\L	.
.	.	8d\	.
.	.	8c\	.
.	.	8G\J)	.
=62	=62	=62	=62
(8E-\L	2f/	2A-X\	.
8D\	.	.	.
8C\	.	.	.
8D\J	.	.	.
=63	=63	=63	=63
!LO:TX:a:t=marcato	!	!	!
8E-\L	[2e-/	2G\	.
8D\	.	.	.
8C\	.	.	.
8GG\J)	.	.	.
*	*v	*v	*
!!LO:LB:g=original
=64	=64	=64
*^	*	*
!	!LO:SIC:v:s=4AA-\	!	!
[2F/	4AA\	8e-/L]	<
.	.	8g/	.
.	4AAn\	8f/	.
.	.	8e-/J	[[
=65	=65	=65	=65
8F/L]	4BB-\	4d/	.
8A-X/	.	.	.
8G/	4BBn\	4dd\	.
8F/J	.	.	.
=66	=66	=66	=66
!LO:TX:b:t=cres. poco.:ext=s:problem:dynamics with extention lines	!	!	!LO:HP:b=2
(4E-/	2C\	8ee-/L	<
.	.	8cc/	.
4e-/	.	8g/	.
.	.	8a/J	.
=67	=67	=67	=67
8f/L	2D\	(>4b-/	.
8d/	.	.	.
8An/	.	4ff/	[[
8B-/J)	.	.	.
=68	=68	=68	=68
4B-/	[2E-\	8gg/L	f
.	.	8ff#X/	.
4Bn/	.	8gg/	.
.	.	8ffn/J	.
=69	=69	=69	=69
8c/L	2E-\_	4.ee-/	.
8Bn/	.	.	.
8c/	.	.	.
8d/J	.	8dd/)	.
!!LO:PB:g=original
=70	=70	=70	=70
4e-/	4E-\]	8cc/L	.
.	.	8b-/	.
4en/	4C\	8a/	.
.	.	8g/J	.
*v	*v	*	*
=71	=71	=71
*	*^	*
2F\	(8f/L	(4f\	.
.	8g/	.	.
.	8a/	4d\	.
.	8b-/J	.	.
=72	=72	=72	=72
!LO:TX:a:t=dolce	!	!	!
2FF\	8bn/L	4e-\	.
.	8cc/J	.	.
.	4ee-/)	4g-X\)	.
=73	=73	=73	=73
2F\	(4dd/	8f\L	.
.	.	8gn\	.
.	[4ff/	8a\	.
.	.	8b-\J	<
=74	=74	=74	=74
2FF\	4ff/]	8bn\L	.
.	.	8cc\J	.
!	!LO:TX:b:t=rit.	!	!
.	[4gg-X/)	4ee-\	[[
!!LO:LB:g=original
=75	=75	=75	=75
!	!LO:TX:b:t=stringen. e cres_cen_do:ext=ud:problem:dynamics with extention lines	!	!
2F\	4gg-/]	8ee-\L	<
.	.	8dd\	.
.	[4ggn/	8ee-\	.
.	.	8dd\J	.
=76	=76	=76	=76
[2f\	4gg/]	8ee-\L	.
.	.	8dd\	.
.	[4gg#X/	8ee-\	.
.	.	8dd\J	.
=77	=77	=77	=77
4f\]	4gg#/]	8ee-\L	.
.	.	8dd\	.
4e-\	4aa/	8dd\	.
.	.	8cc\J	[
=78	=78	=78	=78
*	*	*	*^
4d>\	4bb-/	4f/	sf	fff
!LO:TX:b:t=m.d.	!LO:TX:a:t=Tempo I.	!	!	!
4B-^\	4g/	4d-X\	.	.
*	*	*	*v	*v
=79	=79	=79	=79
4F^\	(8c/L	4B-\	.
.	8d/J	.	.
4FF\	4e-/)	4A\	.
!!LO:LB:g=original
=80	=80	=80	=80
8BB-\L	(8d/L	4.B-\	<
8C\	8e-/	.	.
8D\	8f/	.	.
8En\J	8g/J	8d-X\	.
=81	=81	=81	=81
8F\L	8a/L	4c\	.
8G\J	8b-/J	.	.
4A\	4cc/)	4f\	[[
=82	=82	=82	=82
4B-\	4dd/	2d\	<
4A\	4cc/	.	[[
=83	=83	=83	=83
4G\	8b-/L	4d\	>
.	8cc/J	.	.
4D\	4dd/	4f\	]]
=84	=84	=84	=84
4G\	(4b-/	2B-\	<
4F\	4a/	.	[[
=85	=85	=85	=85
4E-\	8g/L	4B-\	>
.	8a/J	.	.
4BB-\	4b-/)	4d\	]]
*	*v	*v	*
!!LO:LB:g=original
=86	=86	=86
*^	*	*
4G/	4E-\	(>4c/	p
4A-X/	4F\	4Bn/	.
=87	=87	=87	=87
4G/	4E-\	4c/	<
4A-X/	4F\	8d/L	.
.	.	8Bn/J	[
*v	*v	*	*
=88	=88	=88
8E-\ 8G	8c/L	<
8r	8d/	.
4r	8e-/	.
.	8g/J	.
=89	=89	=89
2r	8cc/L	.
.	8dd/	[
.	8ee-/	.
.	8ff#X/J)	.
=90	=90	=90
*^	*	*
(4c/	4E-\	[>2gg/	.
4Bn/)	4F\	.	.
=91	=91	=91	=91
4c/	4E-\	2gg/]	<[
8d/L	4F\	.	.
8Bn/J	.	.	.
*v	*v	*	*
!!LO:LB:g=original
=92	=92	=92
*	*^	*
8E-\L	[2eee-/	8c/L	<
8G\	.	8d/	.
8c\	.	8e-/	.
8d\J	.	8g/J	.
*clefG2	*	*	*
=93	=93	=93	=93
8e-\L	2eee-/_	8cc\L	.
8g\	.	8dd\	.
8cc\	.	8ee-\	.
8dd\J	.	8ff#X\J	[[
=94	=94	=94	=94
4ee-\	(4eee-/]	4gg\	.
4dd\	4fff/	4gg\	.
=95	=95	=95	=95
8cc\L	8eee-/L	2gg\	>
8dd\J	8ddd/J	.	.
4ee-\	4ccc/)	.	]]
=96	=96	=96	=96
4r	(4eee-/	4r	<
4f#X\	4ddd/	4dd\	[[
=97	=97	=97	=97
8g\L	8bb-/L	8een\L	>
8a\J	8aa/J	8ff#X\J	.
4b-\	4gg/)	4gg\	]]
!!LO:LB:g=original
=98	=98	=98	=98
2r	4rgg	[>2dd-X\	sf
.	4rgg	.	.
*clefF4	*	*	*
=99	=99	=99	=99
(2En\	(2gg/	(2dd-\]	.
=100	=100	=100	=100
8F\)	(8ff/L)	8ddn\)	.
8r	8aa/	8r	.
4r	8bb-/	4r	.
.	8ccc/J	.	.
=101	=101	=101	=101
2r	8ddd/L	8f\L	.
.	8cccn/	8a\	.
.	8bb-/	8b-\	.
.	8gg/J	8cc#X\J	.
!!LO:PB:g=original
=102	=102	=102	=102
(8F\L	4ff/)	(8dd\L	.
8A\	.	8ccn\	.
8B-\	8gg/L	8b-\	.
8c#X\J	8een/J	8g\J)	.
=103	=103	=103	=103
8d\L	4ff/	4f\	.
8cn\	.	.	.
8B-\	8dd/L	8g\L	.
8G\J)	8b-/J	8en\J	.
=104	=104	=104	=104
!	!LO:TX:b:t=rit.	!	!
4F\	8dd/L	4f\	.
.	8a/	.	.
8G\L	8b-/	8d\L	.
8En\J	8cc/J	8c\J	.
=105	=105	=105	=105
!	!LO:TX:b:t=rit	!	!
2F\	2f/	2d\	.
=106	=106	=106	=106
2FF;\	2f;/	2e-\	.
!!LO:LB:g=original
=107	=107	=107	=107
!	!LO:TX:a:t=Più moſso	!	!
4BBB-\	4f/	(<8d\L	.
.	.	8d-X\	.
[<4BBB-\	4g/	8c\	.
.	.	8B-\J	.
=108	=108	=108	=108
!	!	!	!LO:DY:a
4BBB-\]	8c/L	8A</L	ff
.	8d/J	8A-X</	.
[<4BBB-\	4e-/	8G</	.
.	.	8G-X</J)	.
=109	=109	=109	=109
!	!LO:TX:t=P:problem:mixed beam	!	!
4BBB-\]	(>8d/L	8F</L	.
.	8e-/	8c\	.
[<4BBB-\	8f/	8d\	<
.	8g/J	8d-X\J	.
=110	=110	=110	=110
4BBB-\]	8a/L	8c\L	.
.	8b-/J	8g-X\	.
[<4BBB-\	4cc/)	8f\	[
.	.	8e-\J	.
=111	=111	=111	=111
4BBB-\]	(4dd/	8d\L	.
.	.	8e-\	.
[<4BBB-\	4cc/	8f\	.
.	.	8f#X\J	.
!!LO:LB:g=original
=112	=112	=112	=112
4BBB-\]	8b-/L	8g\L	.
.	8cc/J	8g-X\	.
[<4BBB-\	4dd/)	8f\	.
.	.	8d\J	.
=113	=113	=113	=113
4BBB-\]	(4b-/	8r	.
.	.	8B-\L	.
[<4BBB-\	4a/	8c\	.
.	.	8d\J	.
=114	=114	=114	=114
!	!	!	!LO:DY:rj
4BBB-\]	8g/L	8e-\L	f
.	8a/J	8c\	.
[<4BBB-\	4b-/)	8d\	.
.	.	8B-\J	.
=115	=115	=115	=115
4BBB-\]	(4f/	8A\L	<
.	.	8F\	.
[<4BBB-\	4e-/	8G\	.
.	.	8c\J	[[
=116	=116	=116	=116
4BBB-\]	8d/L	8B-\L	>
.	8e-/J	8c\J	.
[<4BBB-\	4f/)	8A-X</L	]
.	.	8D</J	.
*	*v	*v	*
!!LO:LB:g=original
=117	=117	=117
*^	*	*
4BBB-\]	8G/L	(>4e-/	<
.	8E-/	.	.
[<4BBB-\	8F/	4d/	.
.	8G/J	.	[[
=118	=118	=118	=118
4BBB-\]	8A/L	8c/L	>
.	8G/	8d/J	.
[<4BBB-\	8G-/	4e-/)	.
.	8C/J	.	]]
=119	=119	=119	=119
4BBB-\]	8F/L	(>4d/	<
.	8D/	.	.
[<4BBB-\	8E-/	4c/	.
.	8G-/J	.	[
=120	=120	=120	=120
!	!	!	!LO:HP:t=cres.
4BBB-\]	8F/L	4d/	<
.	8D/	.	.
[<4BBB-\	8E-/	4c/)	.
.	8G-/J	.	.
=121	=121	=121	=121
4BBB-\]	N(>8F/L	8d/	.
*	*ped	*	*
!	!	!	!LO:HP:b=2
.	8D/	8r	<
4rFF	8F/	4r	.
.	8B-/J	.	[
*v	*v	*	*
!!LO:LB:g=original
=122	=122	=122
*	*^	*
2r	8d/L	4r	<
.	8f/	.	.
.	8b-/	4r	.
.	8dd/J	.	.
=123	=123	=123	=123
2r	8ff/L	4r	.
.	8bb-/	.	.
.	8ddd/	4r	.
.	8fff/JN)	.	.
*	*v	*v	*
=124	=124	=124
*	*8va	*
2r	4dddd/	[ sf
*	*X8va	*
.	4r	.
=125	=125	=125
*	*^	*
2r;	2r;	4re	.
*Xped	*	*	*
.	.	4re	.
=126	=126	=126	=126
!	!LO:TX:a:t=lento	!	!LO:DY:t=p. e tranquillo
(4C\	(8c/L	4B-\	p
.	8d/J	.	.
4FF\)	4e-/)	4A\	.
=127	=127	=127	=127
!LO:TX:a:t=rit.	!	!	!
(4FF\	(8c/L	4A-X\	.
.	8d/J	.	.
4CC\)	4e-/)	4G\	.
*	*v	*v	*
!!LO:LB:g=original
=128	=128	=128
*^	*	*
!	!	!LO:TX:a:t=à tempo	!
[2F/	8FF\L	8A'>/L	.
.	8GG\	8B-'>/	<
.	8AA\	8c'>/	.
.	8BB-\J	8d'>/J	.
=129	=129	=129	=129
4.F/]	8C\L	8e-'>/L	.
.	8D\	8f'>/	.
.	8E-\J	8g'>/J	[
8ryy	8r	8r	.
*v	*v	*	*
=130	=130	=130
*	*^	*
4r;	4r;	4ryy	.
4FF\	(4a/	(4e-\	pp
=131	=131	=131	=131
4BBB-\	4b-/)	4d\)	.
4r	4r	4r	.
*	*v	*v	*
==	==	==
*-	*-	*-
!!!system-decoration: {(s1,s2)}
!!!RDF**kern: < = below
!!!RDF**kern: > = above
!!!RDF**kern: N = linked
!!!ENC: Andrzej Gręziak
!!!END: 2021-11-04
!!!ENC: Marta Chmielewska
!!!END: 2021-11-08
